X:1
T:May Day Carol
M:6/8
L:1/4
K:C
 G| E C C| G F E| F D C| D E F| G3| G| c d e| d c A| G E F| D/2D/2 C B,|\
 C3| G| E E E| G F E| F D C| D E F| G3| c| e/2e/2d/2 d/2 c| A/2A/2 G E/2E/2|\
 E D C| C/2C/2 C C| C3| G| E E E| G F E| F D C| D E F| G3| c|e/2-e/2d/2-d/2 c|\
A/2-A/2 GE/2-E/2| E D C| C/2C/2 C C| C3| G| A G/2F/2 E| D C3| z/2 G/2
M:6/8
| G E/2 C C/2| C C/2 C A/2| A/4 G G/4 F E/2| E3/2- D G/2| G E/2 C A/2|\
 A F/2 D G/2| G C/2 E D/2| C3/2- C/2||
